;FLAVOR:RepRap
;TIME:6289
;Filament used: 5.53963m
;Layer height: 0.2
;Generated with Cura_SteamEngine 2.4.0
M104 S215
M109 S215
; -- START GCODE --
G21                     ;set units to millimetres
G90                     ;set to absolute positioning
M106 S0                 ;set fan speed to zero (turned off)
G28 X0 Y0               ;move to the X/Y origin (Home)
G28 Z0                  ;move to the Z origin (Home)
G1 Z15.0 F1200          ;move Z to position 15.0 mm
G92 E0                  ;zero the extruded length
G1 E20 F200             ;extrude 20mm of feed stock
G92 E0                  ;zero the extruded length again
G1 F7200                ;set feedrate to 120 mm/s
; -- end of START GCODE --
;LAYER_COUNT:100
;LAYER:0
M107
G1 F1500 E-6.5
G0 F2400 X87.47 Y69.564 Z0.2
;TYPE:SKIRT
G1 F1500 E0
G1 F1200 X87.808 Y69.188 E0.01682
G1 X88.201 Y68.87 E0.03363
G1 X88.64 Y68.618 E0.05047
G1 X89.112 Y68.439 E0.06726
G1 X89.607 Y68.335 E0.08408
G1 X90.01 Y68.31 E0.09751
G1 X124.991 Y68.311 E1.26098
G1 X125.495 Y68.351 E1.2778
G1 X125.986 Y68.47 E1.2946
G1 X126.453 Y68.665 E1.31143
G1 X126.883 Y68.93 E1.32823
G1 X127.266 Y69.261 E1.34507
G1 X127.592 Y69.647 E1.36187
G1 X127.853 Y70.08 E1.37869
G1 X128.043 Y70.548 E1.39549
G1 X128.156 Y71.041 E1.41231
G1 X128.19 Y71.423 E1.42507
G1 X128.356 Y77.47 E1.62627
G1 X128.821 Y82.937 E1.80876
G1 X129.592 Y88.343 E1.99038
G1 X130.675 Y93.748 E2.17372
G1 X131.311 Y96.342 E2.26256
G1 X132.045 Y99.009 E2.35456
G1 X133.723 Y104.228 E2.5369
G1 X135.69 Y109.334 E2.71889
G1 X137.957 Y114.352 E2.90203
G1 X139.169 Y116.759 E2.99166
G1 X141.841 Y121.546 E3.174
G1 X145.187 Y126.78 E3.38062
G1 X145.425 Y127.226 E3.39743
G1 X145.59 Y127.704 E3.41425
G1 X145.677 Y128.202 E3.43107
G1 X145.691 Y128.503 E3.44109
G1 X145.691 Y138.49 E3.77326
G1 X145.651 Y138.994 E3.79007
G1 X145.532 Y139.485 E3.80688
G1 X145.338 Y139.952 E3.8237
G1 X145.072 Y140.382 E3.84051
G1 X144.742 Y140.765 E3.85733
G1 X144.355 Y141.091 E3.87416
G1 X143.922 Y141.352 E3.89097
G1 X143.454 Y141.542 E3.90777
G1 X142.961 Y141.655 E3.9246
G1 X142.565 Y141.689 E3.93781
G1 X139.652 Y141.756 E4.03473
G1 X133.673 Y142.129 E4.23398
G1 X133.402 Y142.134 E4.24299
G1 X127.074 Y141.991 E4.45351
G1 X120.023 Y142.134 E4.68808
G1 X119.953 Y142.135 E4.69041
G1 X113.918 Y142.125 E4.89113
G1 X113.753 Y142.12 E4.89662
G1 X111.622 Y142.006 E4.9676
G1 X106.093 Y141.925 E5.15152
G1 X100.699 Y142.133 E5.33106
G1 X100.571 Y142.135 E5.33531
G1 X94.536 Y142.125 E5.53604
G1 X94.437 Y142.123 E5.53933
G1 X90.518 Y141.996 E5.66975
G1 X81.248 Y142.125 E5.9781
G1 X80.944 Y142.115 E5.98822
G1 X78.707 Y141.933 E6.06286
G1 X72.384 Y141.687 E6.27333
G1 X71.882 Y141.627 E6.29014
G1 X71.396 Y141.489 E6.30695
G1 X70.937 Y141.276 E6.32378
G1 X70.518 Y140.994 E6.34057
G1 X70.148 Y140.649 E6.3574
G1 X69.837 Y140.25 E6.37423
G1 X69.593 Y139.808 E6.39102
G1 X69.422 Y139.332 E6.40784
G1 X69.328 Y138.835 E6.42466
G1 X69.309 Y138.489 E6.43619
G1 X69.31 Y128.502 E6.76836
G1 X69.35 Y127.998 E6.78517
G1 X69.469 Y127.506 E6.80201
G1 X69.664 Y127.04 E6.81881
G1 X69.826 Y126.76 E6.82957
G1 X72.424 Y122.757 E6.98829
G1 X75.161 Y118.017 E7.17034
G1 X77.633 Y113.114 E7.35297
G1 X79.827 Y108.073 E7.53583
G1 X80.806 Y105.535 E7.6263
G1 X81.703 Y102.991 E7.71602
G1 X83.315 Y97.73 E7.89903
G1 X84.628 Y92.383 E8.08216
G1 X85.169 Y89.701 E8.17316
G1 X85.621 Y87.055 E8.26244
G1 X86.321 Y81.601 E8.44533
G1 X86.712 Y76.121 E8.62806
G1 X86.811 Y71.442 E8.78372
G1 X86.861 Y70.939 E8.80053
G1 X86.991 Y70.45 E8.81736
G1 X87.195 Y69.988 E8.83416
G1 X87.47 Y69.564 E8.85097
G1 F1500 E2.35097
G0 F2400 X89.335 Y72.115
G0 X90.614 Y72.115
G0 X90.67 Y72.171
G0 X90.6 Y72.101
;TYPE:WALL-INNER
G1 F1500 E8.85097
G1 F1200 X124.4 Y72.101 E9.97516
G1 X124.4 Y123.748 E11.69294
G1 X129.748 Y129.096 E11.9445
G1 X141.9 Y129.099 E12.34868
G1 X141.9 Y137.899 E12.64136
G1 X73.1 Y137.899 E14.92966
G1 X73.1 Y129.099 E15.22235
G1 X85.249 Y129.099 E15.62643
G1 X90.6 Y123.748 E15.87812
G1 X90.6 Y72.101 E17.59591
G0 F2400 X90.2 Y71.701
;TYPE:WALL-OUTER
G1 F1200 X124.8 Y71.701 E18.74671
G1 X124.8 Y123.582 E20.47228
G1 X129.914 Y128.696 E20.71283
G1 X142.3 Y128.699 E21.12479
G1 X142.3 Y138.299 E21.44408
G1 X72.7 Y138.299 E23.75899
G1 X72.7 Y128.699 E24.07829
G1 X85.083 Y128.699 E24.49015
G1 X90.2 Y123.582 E24.73083
G1 X90.2 Y71.701 E26.4564
G0 F2400 X90.4 Y71.701
G0 X90.948 Y72.281
;TYPE:SKIN
G1 F1200 X124.219 Y105.551 E28.02135
G0 X124.289 Y105.621
G0 F2400 X124.219 Y104.986
G1 F1200 X91.514 Y72.281 E29.55969
G0 X91.444 Y72.211
G0 F2400 X92.08 Y72.281
G1 F1200 X124.219 Y104.42 E31.07141
G0 X124.289 Y104.49
G0 F2400 X124.219 Y103.854
G1 F1200 X92.645 Y72.281 E32.55653
G0 X92.575 Y72.211
G0 F2400 X93.211 Y72.281
G1 F1200 X124.219 Y103.289 E34.01505
G0 X124.289 Y103.359
G0 F2400 X124.219 Y102.723
G1 F1200 X93.777 Y72.281 E35.44695
G0 X93.707 Y72.211
G0 F2400 X94.342 Y72.281
G1 F1200 X124.219 Y102.157 E36.85225
G0 X124.289 Y102.227
G0 F2400 X124.219 Y101.592
G1 F1200 X94.908 Y72.281 E38.23095
G0 X94.838 Y72.211
G0 F2400 X95.474 Y72.281
G1 F1200 X124.219 Y101.026 E39.58302
G0 X124.289 Y101.096
G0 F2400 X124.219 Y100.46
G1 F1200 X96.039 Y72.281 E40.9085
G0 X95.969 Y72.211
G0 F2400 X96.605 Y72.281
G1 F1200 X124.219 Y99.895 E42.20738
G0 X124.289 Y99.965
G0 F2400 X124.219 Y99.329
G1 F1200 X97.171 Y72.281 E43.47963
G0 X97.101 Y72.211
G0 F2400 X97.737 Y72.281
G1 F1200 X124.219 Y98.763 E44.72527
G0 X124.289 Y98.833
G0 F2400 X124.219 Y98.198
G1 F1200 X98.302 Y72.281 E45.94432
G0 X98.232 Y72.211
G0 F2400 X98.868 Y72.281
G1 F1200 X124.219 Y97.632 E47.13676
G0 X124.289 Y97.702
G0 F2400 X124.219 Y97.066
G1 F1200 X99.434 Y72.281 E48.30257
G0 X99.364 Y72.211
G0 F2400 X99.999 Y72.281
G1 F1200 X124.219 Y96.5 E49.44178
G0 X124.289 Y96.57
G0 F2400 X124.219 Y95.935
G1 F1200 X100.565 Y72.281 E50.55439
G0 X100.495 Y72.211
G0 F2400 X101.131 Y72.281
G1 F1200 X124.219 Y95.369 E51.64038
G0 X124.289 Y95.439
G0 F2400 X124.219 Y94.803
G1 F1200 X101.696 Y72.281 E52.69977
G0 X101.626 Y72.211
G0 F2400 X102.262 Y72.281
G1 F1200 X124.219 Y94.238 E53.73256
G0 X124.289 Y94.308
G0 F2400 X124.219 Y93.672
G1 F1200 X102.828 Y72.281 E54.73872
G0 X102.758 Y72.211
G0 F2400 X103.393 Y72.281
G1 F1200 X124.219 Y93.106 E55.71829
G0 X124.289 Y93.176
G0 F2400 X124.219 Y92.541
G1 F1200 X103.959 Y72.281 E56.67126
G0 X103.889 Y72.211
G0 F2400 X104.525 Y72.281
G1 F1200 X124.219 Y91.975 E57.59761
G0 X124.289 Y92.045
G0 F2400 X124.219 Y91.409
G1 F1200 X105.09 Y72.281 E58.49735
G0 X105.02 Y72.211
G0 F2400 X105.656 Y72.281
G1 F1200 X124.219 Y90.844 E59.3705
G0 X124.289 Y90.914
G0 F2400 X124.219 Y90.278
G1 F1200 X106.222 Y72.281 E60.21702
G0 X106.152 Y72.211
G0 F2400 X106.787 Y72.281
G1 F1200 X124.219 Y89.712 E61.03695
G0 X124.289 Y89.782
G0 F2400 X124.219 Y89.147
G1 F1200 X107.353 Y72.281 E61.83027
G0 X107.283 Y72.211
G0 F2400 X107.919 Y72.281
G1 F1200 X124.219 Y88.581 E62.59697
G0 X124.289 Y88.651
G0 F2400 X124.219 Y88.015
G1 F1200 X108.485 Y72.281 E63.33705
G0 X108.415 Y72.211
G0 F2400 X109.05 Y72.281
G1 F1200 X124.219 Y87.45 E64.05056
G0 X124.289 Y87.52
G0 F2400 X124.219 Y86.884
G1 F1200 X109.616 Y72.281 E64.73744
G0 X109.546 Y72.211
G0 F2400 X110.182 Y72.281
G1 F1200 X124.219 Y86.318 E65.39769
G0 X124.289 Y86.388
G0 F2400 X124.219 Y85.752
G1 F1200 X110.747 Y72.281 E66.03135
G0 X110.677 Y72.211
G0 F2400 X111.313 Y72.281
G1 F1200 X124.219 Y85.187 E66.63841
G0 X124.289 Y85.257
G0 F2400 X124.219 Y84.621
G1 F1200 X111.879 Y72.281 E67.21885
G0 X111.809 Y72.211
G0 F2400 X112.444 Y72.281
G1 F1200 X124.219 Y84.055 E67.77268
G0 X124.289 Y84.125
G0 F2400 X124.219 Y83.49
G1 F1200 X113.01 Y72.281 E68.29992
G0 X112.94 Y72.211
G0 F2400 X113.576 Y72.281
G1 F1200 X124.219 Y82.924 E68.80053
G0 X124.289 Y82.994
G0 F2400 X124.219 Y82.358
G1 F1200 X114.141 Y72.281 E69.27455
G0 X114.071 Y72.211
G0 F2400 X114.707 Y72.281
G1 F1200 X124.219 Y81.793 E69.72196
G0 X124.289 Y81.863
G0 F2400 X124.219 Y81.227
G1 F1200 X115.273 Y72.281 E70.14276
G0 X115.203 Y72.211
G0 F2400 X115.838 Y72.281
G1 F1200 X124.219 Y80.661 E70.53695
G0 X124.289 Y80.731
G0 F2400 X124.219 Y80.096
G1 F1200 X116.404 Y72.281 E70.90454
G0 X116.334 Y72.211
G0 F2400 X116.97 Y72.281
G1 F1200 X124.219 Y79.53 E71.24551
G0 X124.289 Y79.6
G0 F2400 X124.219 Y78.964
G1 F1200 X117.535 Y72.281 E71.55988
G0 X117.465 Y72.211
G0 F2400 X118.101 Y72.281
G1 F1200 X124.219 Y78.399 E71.84766
G0 X124.289 Y78.469
G0 F2400 X124.219 Y77.833
G1 F1200 X118.667 Y72.281 E72.10881
G0 X118.597 Y72.211
G0 F2400 X119.233 Y72.281
G1 F1200 X124.219 Y77.267 E72.34333
G0 X124.289 Y77.337
G0 F2400 X124.219 Y76.701
G1 F1200 X119.798 Y72.281 E72.55126
G0 X119.728 Y72.211
G0 F2400 X120.364 Y72.281
G1 F1200 X124.219 Y76.136 E72.73259
G0 X124.289 Y76.206
G0 F2400 X124.219 Y75.57
G1 F1200 X120.93 Y72.281 E72.88729
G0 X120.86 Y72.211
G0 F2400 X121.495 Y72.281
G1 F1200 X124.219 Y75.004 E73.0154
G0 X124.289 Y75.074
G0 F2400 X124.219 Y74.439
G1 F1200 X122.061 Y72.281 E73.1169
G0 X121.991 Y72.211
G0 F2400 X122.627 Y72.281
G1 F1200 X124.219 Y73.873 E73.19178
G0 X124.289 Y73.943
G0 F2400 X124.219 Y73.307
G1 F1200 X123.192 Y72.281 E73.24007
G0 X123.122 Y72.211
G0 F2400 X123.758 Y72.281
G1 F1200 X124.219 Y72.742 E73.26175
G0 F2400 X124.219 Y106.117
G1 F1200 X90.779 Y72.677 E74.83467
G0 X90.709 Y72.607
G0 F2400 X90.779 Y73.242
G1 F1200 X124.219 Y106.683 E76.4076
G0 X124.289 Y106.753
G0 F2400 X124.219 Y107.249
G1 F1200 X90.779 Y73.808 E77.98054
G0 X90.709 Y73.738
G0 F2400 X90.779 Y74.374
G1 F1200 X124.219 Y107.814 E79.55346
G0 X124.289 Y107.884
G0 F2400 X124.219 Y108.38
G1 F1200 X90.779 Y74.939 E81.1264
G0 X90.709 Y74.869
G0 F2400 X90.779 Y75.505
G1 F1200 X124.219 Y108.946 E82.69934
G0 X124.289 Y109.016
G0 F2400 X124.219 Y109.511
G1 F1200 X90.779 Y76.071 E84.27225
G0 X90.709 Y76.001
G0 F2400 X90.779 Y76.636
G1 F1200 X124.219 Y110.077 E85.84519
G0 X124.289 Y110.147
G0 F2400 X124.219 Y110.643
G1 F1200 X90.779 Y77.202 E87.41813
G0 X90.709 Y77.132
G0 F2400 X90.779 Y77.768
G1 F1200 X124.219 Y111.208 E88.99104
G0 X124.289 Y111.278
G0 F2400 X124.219 Y111.774
G1 F1200 X90.779 Y78.333 E90.56398
G0 X90.709 Y78.263
G0 F2400 X90.779 Y78.899
G1 F1200 X124.219 Y112.34 E92.13692
G0 X124.289 Y112.41
G0 F2400 X124.219 Y112.905
G1 F1200 X90.779 Y79.465 E93.70984
G0 X90.709 Y79.395
G0 F2400 X90.779 Y80.031
G1 F1200 X124.219 Y113.471 E95.28275
G0 X124.289 Y113.541
G0 F2400 X124.219 Y114.037
G1 F1200 X90.779 Y80.596 E96.85569
G0 X90.709 Y80.526
G0 F2400 X90.779 Y81.162
G1 F1200 X124.219 Y114.602 E98.4286
G0 X124.289 Y114.672
G0 F2400 X124.219 Y115.168
G1 F1200 X90.779 Y81.728 E100.00152
G0 X90.709 Y81.658
G0 F2400 X90.779 Y82.293
G1 F1200 X124.219 Y115.734 E101.57446
G0 X124.289 Y115.804
G0 F2400 X124.219 Y116.299
G1 F1200 X90.779 Y82.859 E103.14737
G0 X90.709 Y82.789
G0 F2400 X90.779 Y83.425
G1 F1200 X124.219 Y116.865 E104.72029
G0 X124.289 Y116.935
G0 F2400 X124.219 Y117.431
G1 F1200 X90.779 Y83.99 E106.29323
G0 X90.709 Y83.92
G0 F2400 X90.779 Y84.556
G1 F1200 X124.219 Y117.997 E107.86616
G0 X124.289 Y118.067
G0 F2400 X124.219 Y118.562
G1 F1200 X90.779 Y85.122 E109.43908
G0 X90.709 Y85.052
G0 F2400 X90.779 Y85.687
G1 F1200 X124.219 Y119.128 E111.01202
G0 X124.289 Y119.198
G0 F2400 X124.219 Y119.694
G1 F1200 X90.779 Y86.253 E112.58496
G0 X90.709 Y86.183
G0 F2400 X90.779 Y86.819
G1 F1200 X124.219 Y120.259 E114.15787
G0 X124.289 Y120.329
G0 F2400 X124.219 Y120.825
G1 F1200 X90.779 Y87.384 E115.73081
G0 X90.709 Y87.314
G0 F2400 X90.779 Y87.95
G1 F1200 X124.219 Y121.391 E117.30375
G0 X124.289 Y121.461
G0 F2400 X124.219 Y121.956
G1 F1200 X90.779 Y88.516 E118.87666
G0 X90.709 Y88.446
G0 F2400 X90.779 Y89.082
G1 F1200 X124.219 Y122.522 E120.44958
G0 X124.289 Y122.592
G0 F2400 X124.219 Y123.088
G1 F1200 X90.779 Y89.647 E122.02252
G0 X90.709 Y89.577
G0 F2400 X90.779 Y90.213
G1 F1200 X124.219 Y123.653 E123.59543
G0 X124.289 Y123.723
G0 F2400 X129.842 Y129.276
G1 F1200 X138.283 Y137.718 E123.9925
G0 X138.353 Y137.788
G0 F2400 X137.718 Y137.718
G1 F1200 X90.779 Y90.779 E126.20036
G0 X90.709 Y90.709
G0 F2400 X90.779 Y91.344
G1 F1200 X137.152 Y137.718 E128.38163
G0 X137.222 Y137.788
G0 F2400 X136.586 Y137.718
G1 F1200 X90.779 Y91.91 E130.53627
G0 X90.709 Y91.84
G0 F2400 X90.779 Y92.476
G1 F1200 X136.021 Y137.718 E132.66432
G0 X136.091 Y137.788
G0 F2400 X135.455 Y137.718
G1 F1200 X90.779 Y93.041 E134.76576
G0 X90.709 Y92.971
G0 F2400 X90.779 Y93.607
G1 F1200 X134.889 Y137.718 E136.84059
G0 X134.959 Y137.788
G0 F2400 X134.324 Y137.718
G1 F1200 X90.779 Y94.173 E138.88881
G0 X90.709 Y94.103
G0 F2400 X90.779 Y94.738
G1 F1200 X133.758 Y137.718 E140.91043
G0 X133.828 Y137.788
G0 F2400 X133.192 Y137.718
G1 F1200 X90.779 Y95.304 E142.90544
G0 X90.709 Y95.234
G0 F2400 X90.779 Y95.87
G1 F1200 X132.627 Y137.718 E144.87384
G0 X132.697 Y137.788
G0 F2400 X132.061 Y137.718
G1 F1200 X90.779 Y96.435 E146.81564
G0 X90.709 Y96.365
G0 F2400 X90.779 Y97.001
G1 F1200 X131.495 Y137.718 E148.73082
G0 X131.565 Y137.788
G0 F2400 X130.93 Y137.718
G1 F1200 X90.779 Y97.567 E150.6194
G0 X90.709 Y97.497
G0 F2400 X90.779 Y98.133
G1 F1200 X130.364 Y137.718 E152.48136
G0 X130.434 Y137.788
G0 F2400 X129.798 Y137.718
G1 F1200 X90.779 Y98.699 E154.31669
G0 X90.709 Y98.629
G0 F2400 X90.779 Y99.265
G1 F1200 X129.232 Y137.718 E156.1254
G0 X129.302 Y137.788
G0 F2400 X128.667 Y137.718
G1 F1200 X90.779 Y99.83 E157.90754
G0 X90.709 Y99.76
G0 F2400 X90.779 Y100.396
G1 F1200 X128.101 Y137.718 E159.66305
G0 X128.171 Y137.788
G0 F2400 X127.535 Y137.718
G1 F1200 X90.779 Y100.962 E161.39194
G0 X90.709 Y100.892
G0 F2400 X90.779 Y101.527
G1 F1200 X126.97 Y137.718 E163.09425
G0 X127.04 Y137.788
G0 F2400 X126.404 Y137.718
G1 F1200 X90.779 Y102.093 E164.76994
G0 X90.709 Y102.023
G0 F2400 X90.779 Y102.659
G1 F1200 X125.838 Y137.718 E166.41901
G0 X125.908 Y137.788
G0 F2400 X125.273 Y137.718
G1 F1200 X90.779 Y103.224 E168.0415
G0 X90.709 Y103.154
G0 F2400 X90.779 Y103.79
G1 F1200 X124.707 Y137.718 E169.63737
G0 X124.777 Y137.788
G0 F2400 X124.141 Y137.718
G1 F1200 X90.779 Y104.356 E171.20662
G0 X90.709 Y104.286
G0 F2400 X90.779 Y104.921
G1 F1200 X123.576 Y137.718 E172.74929
G0 X123.646 Y137.788
G0 F2400 X123.01 Y137.718
G1 F1200 X90.779 Y105.487 E174.26534
G0 X90.709 Y105.417
G0 F2400 X90.779 Y106.053
G1 F1200 X122.444 Y137.718 E175.75476
G0 X122.514 Y137.788
G0 F2400 X121.879 Y137.718
G1 F1200 X90.779 Y106.618 E177.21761
G0 X90.709 Y106.548
G0 F2400 X90.779 Y107.184
G1 F1200 X121.313 Y137.718 E178.65383
G0 X121.383 Y137.788
G0 F2400 X120.747 Y137.718
G1 F1200 X90.779 Y107.75 E180.06344
G0 X90.709 Y107.68
G0 F2400 X90.779 Y108.316
G1 F1200 X120.181 Y137.718 E181.44642
G0 X120.251 Y137.788
G0 F2400 X119.616 Y137.718
G1 F1200 X90.779 Y108.881 E182.80282
G0 X90.709 Y108.811
G0 F2400 X90.779 Y109.447
G1 F1200 X119.05 Y137.718 E184.1326
G0 X119.12 Y137.788
G0 F2400 X118.484 Y137.718
G1 F1200 X90.779 Y110.013 E185.43576
G0 X90.709 Y109.943
G0 F2400 X90.779 Y110.578
G1 F1200 X117.919 Y137.718 E186.71234
G0 X117.989 Y137.788
G0 F2400 X117.353 Y137.718
G1 F1200 X90.779 Y111.144 E187.9623
G0 X90.709 Y111.074
G0 F2400 X90.779 Y111.71
G1 F1200 X116.787 Y137.718 E189.18564
G0 X116.857 Y137.788
G0 F2400 X116.222 Y137.718
G1 F1200 X90.779 Y112.275 E190.3824
G0 X90.709 Y112.205
G0 F2400 X90.779 Y112.841
G1 F1200 X115.656 Y137.718 E191.55254
G0 X115.726 Y137.788
G0 F2400 X115.09 Y137.718
G1 F1200 X90.779 Y113.407 E192.69605
G0 X90.709 Y113.337
G0 F2400 X90.779 Y113.972
G1 F1200 X114.525 Y137.718 E193.81299
G0 X114.595 Y137.788
G0 F2400 X113.959 Y137.718
G1 F1200 X90.779 Y114.538 E194.90331
G0 X90.709 Y114.468
G0 F2400 X90.779 Y115.104
G1 F1200 X113.393 Y137.718 E195.967
G0 X113.463 Y137.788
G0 F2400 X112.828 Y137.718
G1 F1200 X90.779 Y115.669 E197.00412
G0 X90.709 Y115.599
G0 F2400 X90.779 Y116.235
G1 F1200 X112.262 Y137.718 E198.01461
G0 X112.332 Y137.788
G0 F2400 X111.696 Y137.718
G1 F1200 X90.779 Y116.801 E198.99848
G0 X90.709 Y116.731
G0 F2400 X90.779 Y117.366
G1 F1200 X111.131 Y137.718 E199.95578
G0 X111.201 Y137.788
G0 F2400 X110.565 Y137.718
G1 F1200 X90.779 Y117.932 E200.88645
G0 X90.709 Y117.862
G0 F2400 X90.779 Y118.498
G1 F1200 X109.999 Y137.718 E201.7905
